assets/icons/bowtie/1.22/uE6C0-heart.svg

<svg xmlns="http://www.w3.org/2000/svg" viewBox="0 0 448 448" enable-background="new 0 0 448 448"><path d="M224 415.578l-189.875-185.219c-45.375-45.421-45.375-119.078-.125-164.343 43.844-43.859 120.313-43.891 164.219 0l25.781 27.781 25.375-27.344c44.688-44.765 120.75-44.297 164.625-.437 45.25 45.266 45.25 118.922 0 164.203l-190 185.359zm-107.875-351.578c-22.5 0-43.625 8.75-59.5 24.641-32.781 32.797-32.781 86.156 0 118.953l167.375 163.265 167.5-163.406c32.656-32.656 32.656-86.016-.125-118.813-31.688-31.734-87.156-31.797-118.969 0l-48.406 52.219-48.813-52.656c-15.468-15.453-36.593-24.203-59.062-24.203z"/></svg>

<svg xmlns="http://www.w3.org/2000/svg" viewBox="0 0 448 448"><path d="M224 415.578L34.125 230.358C-11.25 184.94-11.25 111.282 34 66.018c43.844-43.86 120.313-43.89 164.22 0L224 93.795l25.375-27.343c44.688-44.765 120.75-44.297 164.625-.437 45.25 45.266 45.25 118.922 0 164.203L224 415.576zM116.125 64c-22.5 0-43.625 8.75-59.5 24.64-32.78 32.798-32.78 86.157 0 118.954L224 370.86l167.5-163.407c32.656-32.656 32.656-86.016-.125-118.813-31.688-31.734-87.156-31.797-118.97 0L224 140.86l-48.813-52.657C159.72 72.75 138.594 64 116.125 64z"/></svg>
